modules/feathericon/icons/activity.svg

<svg width="10" height="10" xmlns="http://www.w3.org/2000/svg"><path d="M0 4h1v6H0V4zm3 2h1v4H3V6zm3-4h1v8H6V2zm3-2h1v10H9V0z" fill="#000" fill-rule="evenodd"/></svg>

<?xml version="1.0" encoding="UTF-8"?>
<svg width="10px" height="10px" viewBox="0 0 10 10" version="1.1" xmlns="http://www.w3.org/2000/svg" xmlns:xlink="http://www.w3.org/1999/xlink">
    <!-- Generator: sketchtool 48.1 (47250) - http://www.bohemiancoding.com/sketch -->
    <title>activity</title>
    <desc>Created with sketchtool.</desc>
    <defs></defs>
    <g id="web-app" stroke="none" stroke-width="1" fill="none" fill-rule="evenodd">
        <g id="activity" fill="#000000">
            <path d="M0,4 L1,4 L1,10 L0,10 L0,4 Z M3,6 L4,6 L4,10 L3,10 L3,6 Z M6,2 L7,2 L7,10 L6,10 L6,2 Z M9,0 L10,0 L10,10 L9,10 L9,0 Z" id="Shape"></path>
        </g>
    </g>
</svg>
